X: 649
T: Abigail Judge
C:O'Carolan
B:O'Neill's 649
Z: 1997 by John Chambers <jc@trillian.mit.edu>
N:"Animated"
M:C
L:1/8
K:Gm
GF \
| D2G2 G2B2 | A3G ^F2d2 | d2c2 cBAG | G2^F2 D2zD |
| G3A B2c2 | d2dc B2A2 | G2AB D2dc |(B2A2) G2 ||
||d2 \
| g2d2 d2g2 | f3d B2d2 |c2BA G2c2 |(B2A2) G2^F2 |
| G2A2 B2^c2 | d2d2 Hg2d2 | edcB dcBA | G3(B/A/) G2 |]


